brandFactory_export/1.Light/Flecha Abajo Derecha_1Light.svg

<?xml version="1.0" encoding="UTF-8"?>
<svg width="24px" height="24px" viewBox="0 0 24 24" version="1.1" xmlns="http://www.w3.org/2000/svg" xmlns:xlink="http://www.w3.org/1999/xlink">
    <title>1.Light/Flecha Abajo Derecha_1Light</title>
    <g id="Symbols" stroke="none" stroke-width="1" fill="none" fill-rule="evenodd">
        <g id="1.Light/Flecha-Abajo-Derecha_1Light" fill="#5CB615" fill-rule="nonzero">
            <path d="M21.5764706,22.3596639 C21.5495798,22.3596639 21.5226891,22.3596639 21.492437,22.3563025 L6.29243697,22.3495798 L6.2789916,22.3495798 C5.88571429,22.3495798 5.56638655,22.1411765 5.40504202,21.7815126 C5.20672269,21.3344538 5.29747899,20.7361345 5.61680672,20.389916 L5.62689076,20.3798319 L8.70252101,17.3042017 C8.74621849,17.2605042 8.75294118,17.2033613 8.75294118,17.1731092 C8.74957983,17.112605 8.72605042,17.0554622 8.6789916,17.0117647 L2.59831933,10.897479 C2.20840336,10.507563 2.01344538,10.1008403 2.01676399,9.6907563 C2.02352941,9.28403361 2.21848739,8.8907563 2.61848739,8.49411765 L8.67563025,2.42689076 L8.68571429,2.41680672 C9.57983193,1.59663866 10.2689076,2.2789916 10.5983193,2.60504202 L10.6016807,2.60840336 L16.8033613,8.89411765 C16.8470588,8.93781513 16.9042017,8.96470588 16.9647059,8.96470588 C16.994958,8.96470588 17.0521008,8.96134454 17.0957983,8.91428571 L20.4235294,5.58655462 L20.4302521,5.57983193 C20.7462185,5.27731092 21.307563,5.18991597 21.7378151,5.37478992 C22.1344538,5.54621849 22.3630252,5.9092437 22.3596639,6.3697479 L22.3596639,21.4890756 C22.3798319,21.7445378 22.302521,21.9731092 22.1411765,22.1344538 C21.9932773,22.2857143 21.7983193,22.3596639 21.5764706,22.3596639 L21.5764706,22.3596639 Z M6.29243697,21.6806723 L21.5092437,21.687395 C21.5193277,21.687395 21.5327731,21.687395 21.5428571,21.6907563 C21.6,21.697479 21.6436975,21.687395 21.6638655,21.6672269 C21.6840336,21.6470588 21.6941176,21.6 21.687395,21.5462185 C21.687395,21.5361345 21.6840336,21.5226891 21.6840336,21.512605 L21.6840336,6.37310924 C21.6840336,6.17815126 21.6168067,6.0605042 21.4689076,5.99663866 C21.2672269,5.9092437 21.005042,5.96638655 20.8941176,6.06722689 L17.5697479,9.39159664 C17.405042,9.55630252 17.1798319,9.64369748 16.9411765,9.63697479 C16.7092437,9.6302521 16.4907563,9.53613445 16.3260504,9.36806723 L10.1243697,3.08235294 C9.63697479,2.59831933 9.47563025,2.60840336 9.14621849,2.90756303 L3.09243697,8.96806723 C2.82689076,9.23361345 2.69243697,9.4789916 2.68900931,9.70084034 C2.68571429,9.92605042 2.81008403,10.1613445 3.07226891,10.4235294 L9.15966387,16.5344538 C9.32436975,16.6991597 9.42184874,16.9176471 9.42857143,17.1495798 C9.43529412,17.3882353 9.34789916,17.610084 9.18319328,17.7781513 L6.11092437,20.8504202 C5.97647059,21.0016807 5.93277311,21.307563 6.02352941,21.5092437 C6.0907563,21.6605042 6.19831933,21.6806723 6.28907563,21.6806723 L6.29243697,21.6806723 Z" id="Flecha-Abajo-Derecha_1Light"></path>
        </g>
    </g>
</svg>

<svg width="24" height="24" viewBox="0 0 24 24" xmlns="http://www.w3.org/2000/svg"><path d="M21.576 22.36c-.026 0-.053 0-.084-.004l-15.2-.006H6.28a.926.926 0 01-.874-.568c-.198-.448-.108-1.046.212-1.392l.01-.01 3.076-3.076c.043-.043.05-.1.05-.13a.233.233 0 00-.074-.162l-6.08-6.115c-.39-.39-.586-.796-.582-1.206.007-.407.201-.8.601-1.197l6.058-6.067.01-.01c.894-.82 1.583-.138 1.912.188l.004.003 6.201 6.286c.044.044.101.07.162.07.03 0 .087-.003.13-.05l3.329-3.327.006-.007c.316-.303.878-.39 1.308-.205.396.171.625.534.622.995v15.12a.803.803 0 01-.219.644.765.765 0 01-.565.226zm-15.284-.68l15.217.007c.01 0 .024 0 .034.004.057.006.1-.004.12-.024.021-.02.031-.067.024-.12l-.003-.034V6.373c0-.195-.067-.312-.215-.376-.202-.088-.464-.03-.575.07L17.57 9.392a.848.848 0 01-.629.245.892.892 0 01-.615-.269l-6.202-6.286c-.487-.484-.648-.474-.978-.174l-6.054 6.06c-.265.266-.4.511-.403.733-.003.225.121.46.383.723l6.088 6.11a.907.907 0 01.269.616.854.854 0 01-.246.628L6.111 20.85c-.135.152-.178.458-.087.66.067.15.174.17.265.17h.003z" fill="#5CB615" fill-rule="nonzero"/></svg>
